X:5
T:Bonaparte's Retreat
R: reel
M: 4/4
L: 1/8
K: D
|: D2E2 |"D"F4F>E DF | A2F2 E2 D2|"A"E4E>D EF|G2F2E2D2| 
"D"F4F>E DF | A2F2 E2 D2|"A"E2FG F E3|"D"D4 :|
|: c2|"D"d2d4f>e|d2B2A2A>B |d2B2A2F2  | E2D2D2:|
z2|"C"=c4"G"B4|"D"A4A2B2|"C"=c2e2"G"B2c2 |"D"A4A2B2|
"C"=c4"G"B4|"D"A6G2|F2D2"A"E2F2 |"D"D4|]
